Adwaita++-Light/panel/16/xfce4-fsguard-plugin-urgent.svg

<svg height="16" width="16" xmlns="http://www.w3.org/2000/svg">
  <path d="m3 1c-.554 0-1 .446-1 1v12c0 .554.446 1 1 1h5.0214844c.024718-.225479.0793692-.446893.1855468-.652344l1.3945313-2.705078.7167965-1.388672a4 4 0 0 1 -2.318359.746094h-4v-4a4 4 0 0 1 4-4 4 4 0 0 1 4 4 4 4 0 0 1 -.171875 1.1601562c.179735-.0819988.369618-.1460833.576172-.1582031h.001953.001953c.06029-.00334.119398-.00334.179688 0 .617309.0329797 1.143833.4153975 1.412109.9296875v-6.9316406c0-.554-.446-1-1-1zm5 4a2 2 0 0 0 -2 2 2 2 0 0 0 2 2 2 2 0 0 0 2-2 2 2 0 0 0 -2-2z" fill="#444"/>
  <path d="m12.462891 9a.710646.79561028 0 0 0 -.578125.3964844l-1.394532 2.7050776-1.3945309 2.705079a.710646.79561028 0 0 0 -.0957031.378906.710646.79561028 0 0 0 .7109375.814453h2.7890625 2.789062a.710646.79561028 0 0 0 .615235-1.193359l-1.394531-2.705079-1.394532-2.7050776a.710646.79561028 0 0 0 -.582031-.3964844.710646.79561028 0 0 0 -.070312 0zm-.462891 1h1v3h-1zm0 4h1v1h-1z" fill="#4285f4"/>
</svg>

<svg xmlns="http://www.w3.org/2000/svg" width="16" height="16" version="1.1">
 <defs>
  <style id="current-color-scheme" type="text/css">
   .ColorScheme-Text { color:#444444; } .ColorScheme-Highlight { color:#4285f4; }
  </style>
 </defs>
 <path style="fill:currentColor" class="ColorScheme-Text" d="M 3 1 C 2.446 1 2 1.446 2 2 L 2 14 C 2 14.554 2.446 15 3 15 L 8.0214844 15 C 8.0462024 14.774521 8.1008536 14.553107 8.2070312 14.347656 L 9.6015625 11.642578 L 10.318359 10.253906 A 4 4 0 0 1 8 11 L 4 11 L 4 7 A 4 4 0 0 1 8 3 A 4 4 0 0 1 12 7 A 4 4 0 0 1 11.828125 8.1601562 C 12.00786 8.0781574 12.197743 8.0140729 12.404297 8.0019531 L 12.40625 8.0019531 L 12.408203 8.0019531 C 12.468493 7.9986131 12.527601 7.9986131 12.587891 8.0019531 C 13.2052 8.0349328 13.731724 8.4173506 14 8.9316406 L 14 2 C 14 1.446 13.554 1 13 1 L 3 1 z M 8 5 A 2 2 0 0 0 6 7 A 2 2 0 0 0 8 9 A 2 2 0 0 0 10 7 A 2 2 0 0 0 8 5 z"/>
 <path style="fill:currentColor" class="ColorScheme-Highlight" d="M 12.462891 9 A 0.710646 0.79561028 0 0 0 11.884766 9.3964844 L 10.490234 12.101562 L 9.0957031 14.806641 A 0.710646 0.79561028 0 0 0 9 15.185547 A 0.710646 0.79561028 0 0 0 9.7109375 16 L 12.5 16 L 15.289062 16 A 0.710646 0.79561028 0 0 0 15.904297 14.806641 L 14.509766 12.101562 L 13.115234 9.3964844 A 0.710646 0.79561028 0 0 0 12.533203 9 A 0.710646 0.79561028 0 0 0 12.462891 9 z M 12 10 L 13 10 L 13 13 L 12 13 L 12 10 z M 12 14 L 13 14 L 13 15 L 12 15 L 12 14 z"/>
</svg>
